icons/svgs/calendar-outline.svg

<svg width="24" height="24" viewBox="0 0 24 24" fill="none" xmlns="http://www.w3.org/2000/svg">
<path d="M9.1875 2.9375V4.5H14.8125V2.9375C14.8125 2.42969 15.2031 2 15.75 2C16.2578 2 16.6875 2.42969 16.6875 2.9375V4.5H18.25C19.6172 4.5 20.75 5.63281 20.75 7V7.625V9.5V19.5C20.75 20.9062 19.6172 22 18.25 22H5.75C4.34375 22 3.25 20.9062 3.25 19.5V9.5V7.625V7C3.25 5.63281 4.34375 4.5 5.75 4.5H7.3125V2.9375C7.3125 2.42969 7.70312 2 8.25 2C8.75781 2 9.1875 2.42969 9.1875 2.9375ZM5.125 9.5V19.5C5.125 19.8516 5.39844 20.125 5.75 20.125H18.25C18.5625 20.125 18.875 19.8516 18.875 19.5V9.5H5.125Z" fill="black"/>
</svg>

<svg xmlns="http://www.w3.org/2000/svg" width="24" height="24" fill="currentColor" class="icon-calendar-outline" viewBox="0 0 24 24">
  <mask id="a" width="18" height="20" x="3" y="2" maskUnits="userSpaceOnUse" style="mask-type:alpha">
    <path d="M9.188 2.938V4.5h5.624V2.938c0-.508.391-.938.938-.938a.95.95 0 0 1 .938.938V4.5h1.562c1.367 0 2.5 1.133 2.5 2.5v12.5c0 1.406-1.133 2.5-2.5 2.5H5.75a2.47 2.47 0 0 1-2.5-2.5V7c0-1.367 1.094-2.5 2.5-2.5h1.563V2.938c0-.508.39-.938.937-.938a.95.95 0 0 1 .938.938M5.125 9.5v10c0 .352.273.625.625.625h12.5a.64.64 0 0 0 .625-.625v-10z"/>
  </mask>
  <g mask="url(#a)">
    <path d="M0 0h24v24H0z"/>
  </g>
</svg>
